img/a2b.CUBE
#Created by: Adobe Photoshop Export Color Lookup Plugin
TITLE "a2b.psd"
#LUT size
LUT_3D_SIZE 8
#data domain
#LUT data points
DOMAIN_MIN 0.000000 0.000000 0.000000
DOMAIN_MAX 0.903226 0.903226 0.903226
0.000000 0.000000 0.000000
0.099152 0.051483 0.000000
0.209229 0.094910 0.000000
0.344543 0.114380 0.000000
0.476532 0.130707 0.000000
0.603424 0.150726 0.000000
0.726013 0.178192 0.000000
0.847137 0.207947 0.000000
0.170532 0.089569 0.026764
0.198914 0.096375 0.025085
0.282654 0.110107 0.019897
0.391724 0.124969 0.008820
0.508820 0.141052 0.001923
0.626648 0.162109 0.000793
0.743774 0.188904 0.000000
0.862000 0.216888 0.000000
0.389496 0.140625 0.061432
0.402679 0.142731 0.061157
0.446472 0.149963 0.059845
0.516571 0.162079 0.057556
0.603180 0.178711 0.053955
0.700043 0.199005 0.048370
0.804260 0.221252 0.039764
0.913239 0.245300 0.021759
0.589447 0.205414 0.092896
0.597595 0.206940 0.092621
0.625336 0.212250 0.091827
0.672913 0.221558 0.090332
0.737762 0.234375 0.088043
0.815613 0.249939 0.085022
0.904175 0.267914 0.080963
0.982544 0.287872 0.075684
0.785675 0.273682 0.123810
0.791473 0.274902 0.123627
0.811462 0.278717 0.123077
0.846832 0.285553 0.122070
0.896820 0.295319 0.120331
0.949677 0.307648 0.118317
1.000000 0.322266 0.115479
1.000000 0.338898 0.111969
0.966492 0.341919 0.154663
0.969299 0.342651 0.154480
0.979675 0.345703 0.153961
0.997833 0.351013 0.153168
1.000000 0.358826 0.151947
1.000000 0.368805 0.150360
1.000000 0.380981 0.148163
1.000000 0.394897 0.145599
1.000000 0.410309 0.185547
1.000000 0.411011 0.185516
1.000000 0.413361 0.185181
1.000000 0.417847 0.184479
1.000000 0.424164 0.183472
1.000000 0.432434 0.182220
1.000000 0.442719 0.180481
1.000000 0.454651 0.178436
1.000000 0.478821 0.216583
1.000000 0.479340 0.216461
1.000000 0.481445 0.216187
1.000000 0.485016 0.215698
1.000000 0.490356 0.214752
1.000000 0.497498 0.213745
1.000000 0.506104 0.212250
1.000000 0.516541 0.210632
0.000000 0.084991 0.127930
0.000000 0.096680 0.127441
0.140778 0.129578 0.125671
0.282867 0.163055 0.123383
0.416138 0.191498 0.120819
0.546143 0.217194 0.118011
0.674988 0.242218 0.114777
0.802429 0.267029 0.110840
0.089752 0.121063 0.129700
0.129181 0.129181 0.129181
0.220032 0.151154 0.127686
0.331360 0.176361 0.125885
0.450226 0.201233 0.123383
0.571991 0.225098 0.120819
0.695312 0.249084 0.117523
0.819092 0.273132 0.113953
0.331604 0.185181 0.137085
0.345367 0.188232 0.136841
0.390411 0.198029 0.135864
0.462311 0.212982 0.134552
0.552551 0.231079 0.132568
0.653625 0.250732 0.130280
0.762115 0.271698 0.127411
0.874786 0.293488 0.124084
0.545502 0.245056 0.151093
0.553925 0.246826 0.151031
0.582458 0.252411 0.150330
0.631500 0.262207 0.149292
0.698181 0.275146 0.147797
0.778259 0.290710 0.145813
0.869080 0.308136 0.143433
0.961792 0.327271 0.140503
0.752258 0.305878 0.170258
0.758148 0.307068 0.170013
0.778595 0.310944 0.169556
0.814697 0.317993 0.168793
0.865479 0.327820 0.167511
0.927032 0.340149 0.165985
0.983307 0.354584 0.163940
1.000000 0.370880 0.161407
0.948730 0.368317 0.192627
0.952148 0.369110 0.192444
0.962311 0.372162 0.192108
0.980988 0.377533 0.191406
1.000000 0.385315 0.190399
1.000000 0.395325 0.189087
1.000000 0.407410 0.187317
1.000000 0.421295 0.185303
1.000000 0.432465 0.217316
1.000000 0.433014 0.217316
1.000000 0.435547 0.216888
1.000000 0.439880 0.216370
1.000000 0.446350 0.215576
1.000000 0.454620 0.214355
1.000000 0.464783 0.212860
1.000000 0.476593 0.211090
1.000000 0.497620 0.243622
1.000000 0.498169 0.243622
1.000000 0.500153 0.243347
1.000000 0.503845 0.242828
1.000000 0.509186 0.242035
1.000000 0.516266 0.241028
1.000000 0.525055 0.239807
1.000000 0.535370 0.238312
0.000000 0.145416 0.256439
0.000000 0.151886 0.256165
0.000000 0.176849 0.255341
0.080566 0.219971 0.253571
0.282043 0.259216 0.251526
0.427246 0.294067 0.249268
0.564972 0.326050 0.246765
0.699493 0.355316 0.244293
0.000000 0.167786 0.257172
0.000000 0.175354 0.256897
0.000000 0.202179 0.255859
0.174927 0.236023 0.254333
0.322754 0.270172 0.252319
0.456329 0.302032 0.250122
0.587585 0.332245 0.247772
0.717957 0.360504 0.245514
0.182434 0.241455 0.259399
0.201477 0.245300 0.259125
0.258392 0.258392 0.258392
0.341522 0.278351 0.257111
0.439850 0.302032 0.255615
0.547272 0.327118 0.253845
0.661499 0.352539 0.251617
0.779358 0.377472 0.249390
0.438782 0.308777 0.264771
0.447754 0.310852 0.264709
0.478119 0.318146 0.264191
0.529968 0.330231 0.263245
0.600098 0.346161 0.261963
0.683746 0.364685 0.260468
0.778198 0.384888 0.258667
0.880341 0.406006 0.256683
0.663025 0.370514 0.273895
0.669159 0.371765 0.273834
0.690399 0.376556 0.273376
0.727722 0.384644 0.272797
0.780334 0.395996 0.271820
0.846344 0.409821 0.270538
0.922546 0.425751 0.268829
0.988312 0.443176 0.267059
0.878235 0.429993 0.286469
0.882874 0.431000 0.286407
0.899078 0.434357 0.286102
0.926971 0.440369 0.285431
0.958984 0.448761 0.284668
0.994171 0.459534 0.283630
1.000000 0.472443 0.282135
1.000000 0.487091 0.280640
1.000000 0.489594 0.302063
1.000000 0.490417 0.301910
1.000000 0.492950 0.301636
1.000000 0.497742 0.301117
1.000000 0.504517 0.300354
1.000000 0.513275 0.299591
1.000000 0.523865 0.298309
1.000000 0.536072 0.296844
1.000000 0.549988 0.320068
1.000000 0.550751 0.320068
1.000000 0.552765 0.319794
1.000000 0.556610 0.319305
1.000000 0.562134 0.318756
1.000000 0.569427 0.317841
1.000000 0.578461 0.316772
1.000000 0.589081 0.315521
0.000000 0.191162 0.385376
0.000000 0.196777 0.385315
0.000000 0.221649 0.384583
0.000000 0.264679 0.383270
0.007996 0.308746 0.381317
0.250854 0.350098 0.379303
0.422729 0.388672 0.377167
0.570679 0.424438 0.374939
0.000000 0.212982 0.385803
0.000000 0.220276 0.385559
0.000000 0.245667 0.384796
0.000000 0.282013 0.383484
0.013550 0.321014 0.381775
0.291565 0.359100 0.379761
0.448822 0.395599 0.377747
0.590851 0.429962 0.375488
0.000000 0.286835 0.386536
0.000000 0.291199 0.386322
0.000000 0.306000 0.385803
0.090668 0.329102 0.384583
0.271240 0.357269 0.383301
0.404572 0.387390 0.381531
0.531677 0.418121 0.379730
0.657623 0.448395 0.377655
0.273773 0.362061 0.389038
0.285767 0.364594 0.388824
0.325104 0.373169 0.388336
0.387573 0.387573 0.387573
0.467255 0.406738 0.386536
0.558594 0.428833 0.385040
0.659027 0.453064 0.383331
0.765991 0.478180 0.381500
0.539612 0.430573 0.393860
0.546234 0.432098 0.393677
0.569031 0.437683 0.393341
0.609161 0.447479 0.392670
0.664703 0.460815 0.391846
0.733826 0.477112 0.390594
0.814423 0.495819 0.389130
0.904236 0.516205 0.387604
0.770996 0.494263 0.401184
0.775848 0.495331 0.400940
0.792572 0.499146 0.400696
0.822479 0.506195 0.400146
0.865479 0.516022 0.399414
0.918579 0.528351 0.398407
0.972656 0.543030 0.397217
1.000000 0.559601 0.395874
0.977570 0.555359 0.410828
0.979675 0.556335 0.410797
0.987518 0.559174 0.410553
1.000000 0.564514 0.410034
1.000000 0.572083 0.409515
1.000000 0.581848 0.408569
1.000000 0.593658 0.407501
1.000000 0.607117 0.406250
1.000000 0.615448 0.422913
1.000000 0.615997 0.422913
1.000000 0.618286 0.422668
1.000000 0.622528 0.422180
1.000000 0.628632 0.421631
1.000000 0.636597 0.420898
1.000000 0.646271 0.419952
1.000000 0.657623 0.418823
0.000000 0.238220 0.514008
0.000000 0.244843 0.514008
0.000000 0.268555 0.513275
0.000000 0.308533 0.512207
0.000000 0.352844 0.510712
0.000000 0.396973 0.508942
0.153961 0.439636 0.506927
0.399567 0.479950 0.504913
0.000000 0.260681 0.514252
0.000000 0.267242 0.514008
0.000000 0.290497 0.513275
0.000000 0.325562 0.512238
0.000000 0.365601 0.510742
0.000000 0.406708 0.509216
0.219513 0.447113 0.507202
0.424866 0.486053 0.505188
0.000000 0.329956 0.514465
0.000000 0.334351 0.514282
0.000000 0.349396 0.513763
0.000000 0.373657 0.512756
0.000000 0.403931 0.511505
0.121643 0.437256 0.510010
0.350098 0.471802 0.508423
0.504944 0.506165 0.506439
0.000000 0.408142 0.515747
0.000000 0.410950 0.515533
0.000000 0.420258 0.515045
0.060455 0.436157 0.514465
0.255219 0.457581 0.513275
0.386780 0.482513 0.511993
0.507874 0.509918 0.510498
0.627350 0.538635 0.508789
0.364960 0.482483 0.518311
0.373413 0.484253 0.518311
0.402649 0.490570 0.518036
0.451385 0.501434 0.517303
0.516541 0.516541 0.516541
0.594147 0.535095 0.515503
0.681976 0.556335 0.514069
0.777435 0.579529 0.512543
0.637054 0.551453 0.522858
0.642212 0.552765 0.522858
0.660461 0.557281 0.522583
0.692688 0.565125 0.522095
0.738586 0.576202 0.521332
0.796692 0.590271 0.520325
0.865967 0.606934 0.519287
0.942474 0.625610 0.517975
0.876129 0.617004 0.529358
0.880157 0.617859 0.529205
0.893921 0.621185 0.528931
0.918762 0.627167 0.528595
0.951263 0.635712 0.527924
0.982086 0.646576 0.527161
1.000000 0.659912 0.526154
1.000000 0.675110 0.525085
1.000000 0.679657 0.537476
1.000000 0.680420 0.537476
1.000000 0.682922 0.537231
1.000000 0.687683 0.536926
1.000000 0.694366 0.536438
1.000000 0.703278 0.535675
1.000000 0.713928 0.534790
1.000000 0.726501 0.533783
0.000000 0.290344 0.641968
0.000000 0.296387 0.641937
0.000000 0.318024 0.641449
0.000000 0.353912 0.640442
0.000000 0.396271 0.639160
0.000000 0.440643 0.637665
0.000000 0.485046 0.635895
0.028137 0.528412 0.633972
0.000000 0.310822 0.642120
0.000000 0.316895 0.641937
0.000000 0.337463 0.641449
0.000000 0.369781 0.640472
0.000000 0.408783 0.639191
0.000000 0.450653 0.637665
0.000000 0.493042 0.636139
0.033447 0.534821 0.634125
0.000000 0.373932 0.642151
0.000000 0.378296 0.641968
0.000000 0.392822 0.641479
0.000000 0.416809 0.640717
0.000000 0.447601 0.639679
0.000000 0.482208 0.638367
0.000000 0.518982 0.636688
0.251221 0.556152 0.634949
0.000000 0.451538 0.642731
0.000000 0.454346 0.642700
0.000000 0.463989 0.642242
0.000000 0.480591 0.641693
0.000000 0.503235 0.640686
0.000000 0.529907 0.639435
0.257812 0.559601 0.638153
0.439880 0.590912 0.636444
0.000000 0.528900 0.644440
0.000000 0.530914 0.644257
0.008118 0.537537 0.643982
0.138245 0.549316 0.643494
0.274048 0.565674 0.642731
0.396698 0.585968 0.641724
0.509613 0.609253 0.640442
0.621674 0.634705 0.638947
0.455688 0.602386 0.647247
0.462250 0.603882 0.647247
0.485016 0.608734 0.646973
0.524414 0.617310 0.646454
0.578705 0.629486 0.645782
0.644958 0.644958 0.644958
0.721985 0.663391 0.643951
0.807190 0.684082 0.642670
0.734589 0.672302 0.651581
0.738892 0.673340 0.651581
0.753906 0.677094 0.651306
0.780945 0.683655 0.651031
0.819611 0.692963 0.650330
0.869415 0.705017 0.649567
0.927429 0.719635 0.648712
0.982269 0.736542 0.647552
0.971039 0.738831 0.657410
0.973541 0.739624 0.657410
0.979706 0.742462 0.657166
0.990997 0.747650 0.656860
1.000000 0.755066 0.656372
1.000000 0.764771 0.655640
1.000000 0.776672 0.654877
1.000000 0.790405 0.653870
0.000000 0.345093 0.770660
0.000000 0.350616 0.770630
0.000000 0.369843 0.770142
0.000000 0.401703 0.769318
0.000000 0.441193 0.768311
0.000000 0.484253 0.766846
0.000000 0.528961 0.765350
0.000000 0.573364 0.763580
0.000000 0.363556 0.770660
0.000000 0.368805 0.770630
0.000000 0.386963 0.770142
0.000000 0.416229 0.769379
0.000000 0.453186 0.768311
0.000000 0.494049 0.767090
0.000000 0.536896 0.765442
0.000000 0.580048 0.763824
0.000000 0.419922 0.770660
0.000000 0.424042 0.770630
0.000000 0.437775 0.770172
0.000000 0.460785 0.769623
0.000000 0.491028 0.768616
0.000000 0.525818 0.767365
0.000000 0.563477 0.765869
0.000000 0.602325 0.764313
0.000000 0.494720 0.771088
0.000000 0.497528 0.770935
0.000000 0.507141 0.770630
0.000000 0.523987 0.769928
0.000000 0.546967 0.769165
0.000000 0.574524 0.768066
0.000000 0.605591 0.766815
0.012085 0.638641 0.765350
0.000000 0.573059 0.772125
0.000000 0.575104 0.771942
0.000000 0.581970 0.771698
0.000000 0.594269 0.771179
0.000000 0.611389 0.770447
0.000000 0.632690 0.769440
0.174377 0.657532 0.768341
0.390594 0.684753 0.767059
0.000000 0.649567 0.773926
0.024902 0.651062 0.773926
0.095612 0.656158 0.773651
0.219269 0.665283 0.773163
0.315674 0.678345 0.772644
0.423706 0.694824 0.771667
0.529144 0.714630 0.770660
0.633209 0.736877 0.769623
0.546875 0.723236 0.776947
0.552246 0.724304 0.776947
0.570801 0.728149 0.776703
0.603363 0.735168 0.776398
0.649231 0.745300 0.775757
0.706573 0.758331 0.775146
0.774170 0.774170 0.774170
0.850433 0.792389 0.773132
0.830200 0.793335 0.781250
0.833801 0.794220 0.781158
0.846527 0.797241 0.780975
0.869598 0.802795 0.780670
0.903107 0.810852 0.780212
0.944580 0.821381 0.779480
0.982544 0.834229 0.778748
1.000000 0.849243 0.777740
0.000000 0.399994 0.890228
0.000000 0.405457 0.893555
0.000000 0.423096 0.898804
0.000000 0.451385 0.898254
0.000000 0.487610 0.897247
0.000000 0.528687 0.896027
0.000000 0.572388 0.894775
0.000000 0.617279 0.893005
0.000000 0.417664 0.899323
0.000000 0.422302 0.899323
0.000000 0.438202 0.898804
0.000000 0.464630 0.898254
0.000000 0.498871 0.897247
0.000000 0.538177 0.896057
0.000000 0.580536 0.894775
0.000000 0.623962 0.893250
0.000000 0.467957 0.899323
0.000000 0.471710 0.899231
0.000000 0.484344 0.898804
0.000000 0.506042 0.898285
0.000000 0.535156 0.897369
0.000000 0.569305 0.896271
0.000000 0.606903 0.895050
0.000000 0.646515 0.893524
0.000000 0.538513 0.899506
0.000000 0.541321 0.899353
0.000000 0.550842 0.899109
0.000000 0.567383 0.898560
0.000000 0.590118 0.897797
0.000000 0.617981 0.896790
0.000000 0.649506 0.895569
0.000000 0.683624 0.894226
0.000000 0.616272 0.900085
0.000000 0.618317 0.900055
0.000000 0.625305 0.899811
0.000000 0.637726 0.899292
0.000000 0.655273 0.898560
0.000000 0.677307 0.897797
0.000000 0.702911 0.896576
0.000000 0.731445 0.895325
0.000000 0.694214 0.901367
0.000000 0.695740 0.901306
0.000000 0.701019 0.901093
0.000000 0.710510 0.900635
0.000000 0.724030 0.900085
0.000000 0.741425 0.899261
0.124756 0.762054 0.898376
0.357086 0.785583 0.897247
0.182739 0.770477 0.903534
0.197449 0.771698 0.903381
0.241089 0.775787 0.903351
0.303467 0.783081 0.902832
0.376007 0.793915 0.902344
0.472656 0.807678 0.901611
0.565247 0.824402 0.900848
0.661285 0.843719 0.899841
0.638214 0.843842 0.906647
0.642609 0.844666 0.906616
0.658203 0.847961 0.906403
0.685852 0.853973 0.906097
0.725159 0.862549 0.905609
0.775116 0.873657 0.905090
0.835022 0.887421 0.904358
0.903351 0.903351 0.903351
