img/a2b.CUBE
#Created by: Adobe Photoshop Export Color Lookup Plugin
TITLE "a2b.psd"
#LUT size
LUT_3D_SIZE 32
#data domain
DOMAIN_MIN 0.0 0.0 0.0
DOMAIN_MAX 1.0 1.0 1.0
#LUT data points
0.000000 0.000000 0.000000
0.024719 0.012878 0.000000
0.049469 0.025726 0.000000
0.074310 0.038605 0.000000
0.099152 0.051483 0.000000
0.123871 0.064331 0.000000
0.149475 0.076599 0.000000
0.178741 0.086304 0.000000
0.209229 0.094910 0.000000
0.243164 0.100342 0.000000
0.277069 0.105499 0.000000
0.310883 0.110046 0.000000
0.344543 0.114380 0.000000
0.377960 0.118408 0.000000
0.411163 0.122467 0.000000
0.444092 0.126495 0.000000
0.476532 0.130707 0.000000
0.508453 0.135040 0.000000
0.540314 0.139832 0.000000
0.572083 0.145020 0.000000
0.603424 0.150726 0.000000
0.634460 0.156769 0.000000
0.665161 0.163605 0.000000
0.695679 0.170807 0.000000
0.726013 0.178192 0.000000
0.756287 0.185638 0.000000
0.786560 0.193054 0.000000
0.816864 0.200500 0.000000
0.847137 0.207947 0.000000
0.877411 0.215393 0.000000
0.907562 0.222717 0.000000
0.937714 0.230042 0.000000
0.042145 0.022827 0.006683
0.047546 0.025482 0.005798
0.071686 0.038025 0.005432
0.087830 0.046173 0.000000
0.112091 0.058716 0.000000
0.132965 0.069397 0.000000
0.158569 0.081024 0.000000
0.187836 0.088196 0.000000
0.217743 0.096680 0.000000
0.250092 0.101746 0.000000
0.283508 0.106812 0.000000
0.316284 0.111176 0.000000
0.349579 0.115479 0.000000
0.382385 0.119415 0.000000
0.415253 0.123474 0.000000
0.447754 0.127502 0.000000
0.479889 0.131775 0.000000
0.511475 0.136169 0.000000
0.543060 0.140961 0.000000
0.574615 0.146149 0.000000
0.605804 0.151947 0.000000
0.636719 0.158051 0.000000
0.667175 0.164795 0.000000
0.697571 0.171936 0.000000
0.727814 0.179230 0.000000
0.758057 0.186646 0.000000
0.788239 0.194061 0.000000
0.818481 0.201508 0.000000
0.848663 0.208862 0.000000
0.878937 0.216278 0.000000
0.908966 0.223602 0.000000
0.939117 0.230927 0.000000
0.084290 0.045654 0.013367
0.089539 0.048187 0.012512
0.095337 0.050842 0.011658
0.110870 0.058655 0.005859
0.126862 0.066345 0.000732
0.147186 0.076691 0.000732
0.168854 0.086121 0.000610
0.198120 0.092682 0.000610
0.227692 0.098724 0.000488
0.259460 0.103668 0.000488
0.291168 0.108368 0.000275
0.323456 0.112640 0.000275
0.355621 0.116791 0.000000
0.388031 0.120697 0.000000
0.420166 0.124664 0.000000
0.452362 0.128693 0.000000
0.483978 0.132965 0.000000
0.515259 0.137421 0.000000
0.546478 0.142303 0.000000
0.577759 0.147461 0.000000
0.608643 0.153259 0.000000
0.639435 0.159454 0.000000
0.669739 0.166229 0.000000
0.699890 0.173309 0.000000
0.729980 0.180542 0.000000
0.760132 0.187836 0.000000
0.790253 0.195251 0.000000
0.820404 0.202667 0.000000
0.850525 0.209991 0.000000
0.880676 0.217316 0.000000
0.910706 0.224609 0.000000
0.940735 0.231934 0.000000
0.126556 0.068237 0.019928
0.129578 0.069244 0.019653
0.135223 0.071777 0.018829
0.146301 0.074310 0.018219
0.162201 0.081543 0.013000
0.180756 0.085266 0.011963
0.201630 0.094330 0.011658
0.225739 0.098358 0.010345
0.254272 0.104187 0.009827
0.281677 0.108093 0.008179
0.312347 0.112640 0.007050
0.341644 0.116547 0.004425
0.372772 0.120636 0.002838
0.403046 0.124481 0.000000
0.434235 0.128448 0.000000
0.464844 0.132477 0.000000
0.495636 0.136810 0.000000
0.525879 0.141327 0.000000
0.556335 0.146332 0.000000
0.586853 0.151642 0.000000
0.616974 0.157501 0.000000
0.647125 0.163757 0.000000
0.676880 0.170441 0.000000
0.706696 0.177460 0.000000
0.736389 0.184448 0.000000
0.766327 0.191620 0.000000
0.796082 0.198730 0.000000
0.826080 0.206085 0.000000
0.855804 0.213196 0.000000
0.885864 0.220459 0.000000
0.915649 0.227661 0.000000
0.945648 0.234955 0.000000
0.170532 0.089569 0.026764
0.173431 0.090485 0.026550
0.176758 0.091522 0.026306
0.187622 0.093933 0.025696
0.198914 0.096375 0.025085
0.217346 0.099670 0.023956
0.235901 0.102875 0.022888
0.259247 0.106537 0.021362
0.282654 0.110107 0.019897
0.309021 0.113770 0.017883
0.335358 0.117401 0.015717
0.363617 0.121185 0.012177
0.391724 0.124969 0.008820
0.420990 0.128754 0.004639
0.449982 0.132660 0.002167
0.479614 0.136688 0.002167
0.508820 0.141052 0.001923
0.538239 0.145660 0.001923
0.567535 0.150726 0.001526
0.597321 0.156158 0.001526
0.626648 0.162109 0.000793
0.656036 0.168427 0.000793
0.685181 0.175079 0.000000
0.714447 0.182007 0.000000
0.743774 0.188904 0.000000
0.773285 0.195831 0.000000
0.802795 0.202820 0.000000
0.832428 0.209869 0.000000
0.862000 0.216888 0.000000
0.891632 0.223969 0.000000
0.921295 0.231079 0.000000
0.951080 0.238281 0.000000
0.226166 0.102448 0.035614
0.228302 0.102814 0.035614
0.231506 0.103760 0.035400
0.238831 0.104889 0.035126
0.249878 0.107239 0.034576
0.262634 0.109131 0.034180
0.280792 0.112274 0.033173
0.298370 0.114868 0.032593
0.321014 0.118317 0.031281
0.342438 0.121338 0.030365
0.367828 0.124878 0.028748
0.392120 0.128235 0.027466
0.419128 0.132019 0.024841
0.445190 0.135803 0.022949
0.473114 0.139771 0.020020
0.500458 0.143890 0.019073
0.528534 0.148346 0.018066
0.556152 0.153076 0.016785
0.584412 0.158295 0.015137
0.612701 0.163849 0.013397
0.641174 0.169739 0.009827
0.669647 0.175995 0.006836
0.698120 0.182312 0.002716
0.726807 0.188965 0.000000
0.755524 0.195526 0.000000
0.784637 0.202271 0.000000
0.813477 0.208984 0.000000
0.842773 0.215942 0.000000
0.871887 0.222687 0.000000
0.901367 0.229645 0.000000
0.930298 0.236359 0.000000
0.959900 0.243439 0.000000
0.281555 0.115204 0.044403
0.283569 0.115570 0.044403
0.285889 0.115967 0.044403
0.292938 0.117065 0.044159
0.300507 0.118225 0.043915
0.313019 0.120117 0.043518
0.325775 0.122009 0.043152
0.342926 0.124542 0.042633
0.360138 0.127106 0.042114
0.380859 0.130005 0.041382
0.401520 0.133026 0.040649
0.424835 0.136322 0.039886
0.448029 0.139801 0.039062
0.473022 0.143585 0.037903
0.497833 0.147583 0.036743
0.524078 0.151733 0.035339
0.549896 0.156250 0.033783
0.576477 0.161102 0.031799
0.602966 0.166321 0.029541
0.630219 0.172028 0.026520
0.657349 0.177856 0.022522
0.684967 0.184052 0.016724
0.712524 0.190186 0.011475
0.740540 0.196503 0.005432
0.768646 0.202789 0.003296
0.797150 0.209229 0.003296
0.825531 0.215729 0.002472
0.854187 0.222443 0.002472
0.882935 0.229034 0.000549
0.911957 0.235748 0.000549
0.940674 0.242340 0.000000
0.969574 0.249023 0.000000
0.335938 0.127563 0.052979
0.337341 0.127838 0.052979
0.339508 0.128204 0.052979
0.344696 0.128967 0.052826
0.351959 0.130096 0.052612
0.361176 0.131622 0.052338
0.373718 0.133514 0.051971
0.386597 0.135529 0.051605
0.403503 0.138062 0.051086
0.420074 0.140747 0.050568
0.440155 0.143768 0.049866
0.459534 0.147034 0.049225
0.481964 0.150513 0.048462
0.503693 0.154297 0.047638
0.527527 0.158386 0.046539
0.550964 0.162720 0.045441
0.575745 0.167236 0.044128
0.600037 0.172089 0.042664
0.625763 0.177185 0.040924
0.651550 0.182617 0.038879
0.677856 0.188141 0.036560
0.704407 0.193878 0.033020
0.731171 0.199707 0.029602
0.758331 0.205688 0.025482
0.785583 0.211731 0.021698
0.813416 0.217926 0.020325
0.841125 0.224060 0.016846
0.869324 0.230499 0.015198
0.897308 0.236877 0.006622
0.925964 0.243439 0.003448
0.954041 0.249756 0.000732
0.982697 0.256348 0.000000
0.389496 0.140625 0.061432
0.390839 0.140839 0.061432
0.392365 0.141113 0.061401
0.397278 0.141876 0.061279
0.402679 0.142731 0.061157
0.411591 0.144226 0.060883
0.420929 0.145813 0.060638
0.433624 0.147797 0.060272
0.446472 0.149963 0.059845
0.462769 0.152618 0.059357
0.479004 0.155396 0.058838
0.497803 0.158661 0.058197
0.516571 0.162079 0.057556
0.537537 0.165863 0.056793
0.558411 0.169800 0.056000
0.580872 0.174225 0.054993
0.603180 0.178711 0.053955
0.626526 0.183563 0.052704
0.650116 0.188446 0.051422
0.675110 0.193756 0.049896
0.700043 0.199005 0.048370
0.725769 0.204407 0.046478
0.751465 0.209869 0.044525
0.777863 0.215546 0.042236
0.804260 0.221252 0.039764
0.831238 0.227173 0.036743
0.858276 0.233093 0.033264
0.885773 0.239166 0.028992
0.913239 0.245300 0.021759
0.941132 0.251617 0.011932
0.965424 0.257782 0.008575
0.993439 0.264099 0.005676
0.440735 0.155640 0.069489
0.441864 0.155762 0.069489
0.443329 0.156006 0.069489
0.447113 0.156769 0.069366
0.452240 0.157623 0.069214
0.459198 0.158997 0.068970
0.468262 0.160553 0.068726
0.478210 0.162445 0.068451
0.490906 0.164612 0.068054
0.503754 0.167114 0.067566
0.519806 0.169891 0.067047
0.535522 0.172943 0.066528
0.553894 0.176300 0.065918
0.571960 0.179871 0.065247
0.592285 0.183716 0.064514
0.612396 0.187714 0.063690
0.634125 0.192047 0.062744
0.655670 0.196411 0.061798
0.678528 0.201080 0.060608
0.701721 0.205841 0.059357
0.725922 0.210907 0.058075
0.750366 0.216034 0.056671
0.775330 0.221283 0.055054
0.800690 0.226654 0.053223
0.826294 0.232056 0.051422
0.852448 0.237671 0.049103
0.878632 0.243286 0.046875
0.905457 0.249115 0.043610
0.932068 0.254944 0.040985
0.959442 0.261078 0.034027
0.973969 0.266907 0.030670
0.997345 0.273041 0.027771
0.491241 0.171295 0.077454
0.492310 0.171417 0.077454
0.493561 0.171570 0.077423
0.497192 0.172302 0.077301
0.501221 0.173126 0.077179
0.507904 0.174438 0.076965
0.515106 0.175873 0.076691
0.524841 0.177704 0.076447
0.535004 0.179657 0.076172
0.547729 0.182159 0.075684
0.560669 0.184692 0.075195
0.576202 0.187714 0.074707
0.591766 0.190765 0.074188
0.609436 0.194305 0.073547
0.627167 0.197845 0.072906
0.646729 0.201752 0.072144
0.666229 0.205658 0.071381
0.687225 0.209900 0.070496
0.708313 0.214111 0.069611
0.730774 0.218658 0.068481
0.753326 0.223236 0.067383
0.777039 0.228149 0.066254
0.800751 0.233093 0.065033
0.825348 0.238251 0.063507
0.849945 0.243408 0.062012
0.875305 0.248718 0.060394
0.900635 0.254059 0.058655
0.926636 0.259583 0.056610
0.949829 0.265198 0.054565
0.976318 0.270996 0.052155
0.986389 0.276672 0.049622
1.000000 0.282501 0.046722
0.540344 0.188324 0.085144
0.541199 0.188446 0.085144
0.542389 0.188599 0.085144
0.545563 0.189240 0.084991
0.549408 0.190002 0.084869
0.555084 0.191162 0.084747
0.562042 0.192505 0.084534
0.570221 0.194031 0.084259
0.580170 0.195923 0.083984
0.590881 0.198090 0.083618
0.603699 0.200592 0.083160
0.616821 0.203094 0.082764
0.632233 0.206116 0.082275
0.647675 0.209198 0.081757
0.665100 0.212677 0.081116
0.682556 0.216125 0.080475
0.701599 0.219940 0.079742
0.720520 0.223785 0.078949
0.741150 0.227905 0.078156
0.761932 0.232056 0.077301
0.783844 0.236420 0.076263
0.806061 0.240906 0.075195
0.829102 0.245636 0.074158
0.852478 0.250488 0.072968
0.876312 0.255493 0.071655
0.900665 0.260559 0.070221
0.925201 0.265656 0.068787
0.950348 0.270935 0.067078
0.967987 0.276276 0.065521
0.989929 0.281860 0.063507
0.991638 0.287292 0.061584
1.000000 0.292969 0.059082
0.589447 0.205414 0.092896
0.590302 0.205536 0.092834
0.591278 0.205688 0.092834
0.594238 0.206268 0.092743
0.597595 0.206940 0.092621
0.603058 0.208008 0.092499
0.608948 0.209198 0.092346
0.616913 0.210693 0.092102
0.625336 0.212250 0.091827
0.635864 0.214355 0.091492
0.646729 0.216492 0.091095
0.659729 0.218994 0.090729
0.672913 0.221558 0.090332
0.688171 0.224609 0.089844
0.703522 0.227600 0.089325
0.720673 0.231018 0.088684
0.737762 0.234375 0.088043
0.756256 0.238129 0.087311
0.774994 0.241882 0.086609
0.795288 0.245911 0.085846
0.815613 0.249939 0.085022
0.837158 0.254242 0.084015
0.858795 0.258575 0.083069
0.881500 0.263245 0.082062
0.904175 0.267914 0.080963
0.927765 0.272827 0.079681
0.947113 0.277710 0.078430
0.971466 0.282745 0.077026
0.982544 0.287872 0.075684
0.998932 0.293182 0.074188
1.000000 0.298401 0.072510
1.000000 0.303802 0.070618
0.638641 0.222565 0.100708
0.639404 0.222687 0.100586
0.640350 0.222839 0.100525
0.642883 0.223328 0.100525
0.646027 0.223969 0.100464
0.650818 0.224854 0.100311
0.656525 0.225983 0.100189
0.663452 0.227356 0.099915
0.671631 0.228912 0.099670
0.680725 0.230682 0.099426
0.691406 0.232788 0.099060
0.702637 0.234924 0.098663
0.715668 0.237457 0.098297
0.728912 0.240112 0.097931
0.744141 0.243073 0.097412
0.759399 0.246033 0.096893
0.776245 0.249329 0.096283
0.792969 0.252625 0.095642
0.811371 0.256317 0.094940
0.829987 0.260040 0.094299
0.849823 0.263977 0.093536
0.869843 0.267975 0.092712
0.890900 0.272186 0.091797
0.912292 0.276489 0.090881
0.934326 0.280975 0.089874
0.956787 0.285583 0.088776
0.970825 0.290283 0.087616
0.987854 0.295135 0.086365
0.990997 0.300049 0.085205
0.998932 0.305176 0.083893
1.000000 0.310120 0.082489
1.000000 0.315308 0.080841
0.687805 0.239655 0.108490
0.688507 0.239777 0.108398
0.689362 0.239929 0.108276
0.691772 0.240448 0.108246
0.694489 0.240967 0.108215
0.699036 0.241821 0.108093
0.704071 0.242767 0.107971
0.710724 0.244080 0.107758
0.717926 0.245514 0.107483
0.726807 0.247223 0.107239
0.736084 0.249023 0.106995
0.747131 0.251129 0.106628
0.758545 0.253326 0.106262
0.771698 0.255951 0.105865
0.785004 0.258606 0.105438
0.800140 0.261505 0.104919
0.815216 0.264404 0.104431
0.831726 0.267639 0.103790
0.848358 0.270935 0.103210
0.866669 0.274597 0.102600
0.884979 0.278229 0.101929
0.904541 0.282135 0.101196
0.923981 0.286041 0.100403
0.944794 0.290222 0.099518
0.956543 0.294403 0.098602
0.978363 0.298798 0.097595
0.986755 0.303253 0.096588
0.998505 0.307922 0.095459
1.000000 0.312592 0.094360
1.000000 0.317505 0.093231
1.000000 0.322327 0.092041
1.000000 0.327240 0.090637
0.736877 0.256683 0.116180
0.737488 0.256805 0.116180
0.738312 0.256958 0.116089
0.740570 0.257477 0.115967
0.743195 0.258026 0.115906
0.747223 0.258759 0.115784
0.752014 0.259674 0.115662
0.757935 0.260803 0.115540
0.764862 0.262146 0.115326
0.772827 0.263672 0.115051
0.781891 0.265411 0.114807
0.791595 0.267303 0.114563
0.802826 0.269470 0.114197
0.814575 0.271759 0.113831
0.827759 0.274384 0.113373
0.841125 0.277008 0.112885
0.856110 0.279907 0.112366
0.870941 0.282776 0.111877
0.887421 0.286041 0.111328
0.903992 0.289337 0.110809
0.922058 0.292938 0.110168
0.940247 0.296539 0.109528
0.959198 0.300354 0.108765
0.978363 0.304230 0.107971
0.983734 0.308289 0.107086
0.990082 0.312439 0.106171
0.994324 0.316742 0.105255
0.998505 0.321167 0.104279
1.000000 0.325623 0.103271
1.000000 0.330261 0.102203
1.000000 0.334930 0.101196
1.000000 0.339722 0.100006
0.785675 0.273682 0.123810
0.786224 0.273804 0.123810
0.786957 0.273926 0.123810
0.789062 0.274384 0.123749
0.791473 0.274902 0.123627
0.795319 0.275635 0.123505
0.799591 0.276428 0.123352
0.805298 0.277527 0.123230
0.811462 0.278717 0.123077
0.819153 0.280212 0.122833
0.827362 0.281769 0.122589
0.836884 0.283600 0.122314
0.846832 0.285553 0.122070
0.858398 0.287781 0.121704
0.870209 0.290100 0.121338
0.883484 0.292755 0.120819
0.896820 0.295319 0.120331
0.911591 0.298157 0.119843
0.925018 0.301117 0.119324
0.941437 0.304413 0.118835
0.949677 0.307648 0.118317
0.967560 0.311188 0.117676
0.976532 0.314697 0.117035
0.995178 0.318481 0.116272
1.000000 0.322266 0.115479
1.000000 0.326294 0.114594
1.000000 0.330353 0.113770
1.000000 0.334625 0.112915
1.000000 0.338898 0.111969
1.000000 0.343323 0.110962
1.000000 0.347778 0.110016
1.000000 0.352448 0.109009
0.834106 0.290558 0.131378
0.834595 0.290680 0.131378
0.835236 0.290833 0.131378
0.837128 0.291199 0.131378
0.839417 0.291656 0.131317
0.842957 0.292297 0.131195
0.847015 0.293060 0.131073
0.852203 0.294067 0.130920
0.858154 0.295227 0.130768
0.865082 0.296631 0.130524
0.873047 0.298157 0.130280
0.881744 0.299805 0.130005
0.891541 0.301697 0.129761
0.901886 0.303711 0.129517
0.913544 0.306000 0.129150
0.925385 0.308411 0.128784
0.938660 0.310974 0.128265
0.951965 0.313446 0.127777
0.965210 0.316406 0.127289
0.977448 0.319427 0.126770
0.983765 0.322632 0.126282
0.985962 0.325836 0.125763
0.991730 0.329285 0.125122
0.995178 0.332764 0.124451
1.000000 0.336456 0.123718
1.000000 0.340210 0.122925
1.000000 0.344147 0.122131
1.000000 0.348175 0.121338
1.000000 0.352356 0.120453
1.000000 0.356598 0.119537
1.000000 0.360901 0.118622
1.000000 0.365356 0.117706
0.882874 0.307587 0.139099
0.883392 0.307709 0.139099
0.883972 0.307861 0.139099
0.885742 0.308167 0.139038
0.887787 0.308594 0.139038
0.891174 0.309204 0.138947
0.894928 0.309906 0.138794
0.899902 0.310852 0.138641
0.905304 0.311920 0.138519
0.911987 0.313232 0.138275
0.919159 0.314636 0.138031
0.927643 0.316254 0.137787
0.933624 0.317963 0.137543
0.942566 0.319916 0.137268
0.948242 0.321991 0.136963
0.958923 0.324371 0.136597
0.964661 0.326752 0.136230
0.977386 0.329224 0.135712
0.983398 0.331818 0.135284
0.995361 0.334839 0.134796
1.000000 0.337799 0.134277
1.000000 0.340942 0.133789
1.000000 0.344147 0.133179
1.000000 0.347534 0.132568
1.000000 0.351013 0.131989
1.000000 0.354645 0.131226
1.000000 0.358307 0.130463
1.000000 0.362213 0.129700
1.000000 0.366211 0.128906
1.000000 0.370361 0.128021
1.000000 0.374451 0.127197
1.000000 0.378754 0.126312
0.931976 0.324768 0.146912
0.932465 0.324890 0.146912
0.933044 0.325012 0.146912
0.934692 0.325256 0.146790
0.936615 0.325623 0.146729
0.939758 0.326233 0.146729
0.943359 0.326935 0.146637
0.948029 0.327820 0.146362
0.953247 0.328796 0.146210
0.959320 0.329956 0.146088
0.966248 0.331299 0.145844
0.973938 0.332825 0.145599
0.979675 0.334473 0.145355
0.981323 0.336243 0.145111
0.985565 0.338257 0.144806
0.985565 0.340424 0.144409
0.990173 0.342773 0.144043
0.990173 0.345123 0.143677
0.995361 0.347687 0.143250
0.995361 0.350342 0.142853
1.000000 0.353302 0.142365
1.000000 0.356201 0.141846
1.000000 0.359375 0.141266
1.000000 0.362549 0.140625
1.000000 0.365967 0.140106
1.000000 0.369415 0.139557
1.000000 0.372986 0.138794
1.000000 0.376617 0.138031
1.000000 0.380524 0.137268
1.000000 0.384521 0.136475
1.000000 0.388428 0.135712
1.000000 0.392487 0.134918
0.966492 0.341919 0.154663
0.966675 0.341949 0.154663
0.967133 0.342102 0.154663
0.967896 0.342346 0.154602
0.969299 0.342651 0.154480
0.970947 0.343262 0.154419
0.973480 0.343933 0.154388
0.976196 0.344757 0.154205
0.979675 0.345703 0.153961
0.983551 0.346863 0.153839
0.987671 0.348022 0.153687
0.993103 0.349457 0.153412
0.997833 0.351013 0.153168
0.999084 0.352753 0.152924
1.000000 0.354584 0.152679
1.000000 0.356689 0.152313
1.000000 0.358826 0.151947
1.000000 0.361145 0.151550
1.000000 0.363525 0.151184
1.000000 0.366150 0.150818
1.000000 0.368805 0.150360
1.000000 0.371704 0.149841
1.000000 0.374634 0.149414
1.000000 0.377777 0.148773
1.000000 0.380981 0.148163
1.000000 0.384399 0.147675
1.000000 0.387726 0.147034
1.000000 0.391266 0.146271
1.000000 0.394897 0.145599
1.000000 0.398804 0.144836
1.000000 0.402649 0.144165
1.000000 0.406555 0.143402
0.991852 0.359070 0.162354
0.991852 0.359070 0.162354
0.992004 0.359131 0.162354
0.992004 0.359375 0.162354
0.992523 0.359680 0.162292
0.992523 0.360291 0.162170
0.993530 0.360962 0.162079
0.993530 0.361725 0.161957
0.995056 0.362610 0.161804
0.995056 0.363770 0.161652
0.997009 0.364929 0.161499
0.997009 0.366211 0.161255
0.999481 0.367676 0.160980
0.999481 0.369324 0.160736
1.000000 0.371124 0.160492
1.000000 0.373016 0.160248
1.000000 0.375092 0.159882
1.000000 0.377197 0.159515
1.000000 0.379547 0.159119
1.000000 0.381958 0.158752
1.000000 0.384583 0.158295
1.000000 0.387238 0.157806
1.000000 0.390137 0.157379
1.000000 0.393066 0.156982
1.000000 0.396210 0.156342
1.000000 0.399384 0.155731
1.000000 0.402710 0.155121
1.000000 0.406036 0.154480
1.000000 0.409546 0.153839
1.000000 0.413177 0.153168
1.000000 0.416992 0.152527
1.000000 0.420807 0.151855
1.000000 0.376129 0.170044
1.000000 0.376221 0.170044
1.000000 0.376251 0.170044
1.000000 0.376495 0.170044
1.000000 0.376770 0.170044
1.000000 0.377350 0.169983
1.000000 0.377960 0.169861
1.000000 0.378662 0.169739
1.000000 0.379486 0.169617
1.000000 0.380585 0.169495
1.000000 0.381744 0.169312
1.000000 0.383026 0.169067
1.000000 0.384338 0.168823
1.000000 0.385895 0.168579
1.000000 0.387573 0.168304
1.000000 0.389465 0.168060
1.000000 0.391388 0.167816
1.000000 0.393494 0.167450
1.000000 0.395599 0.167084
1.000000 0.397980 0.166718
1.000000 0.400360 0.166321
1.000000 0.403015 0.165833
1.000000 0.405731 0.165314
1.000000 0.408630 0.164948
1.000000 0.411469 0.164459
1.000000 0.414642 0.163849
1.000000 0.417786 0.163300
1.000000 0.421082 0.162659
1.000000 0.424408 0.162018
1.000000 0.427948 0.161407
1.000000 0.431458 0.160767
1.000000 0.435242 0.160126
1.000000 0.393158 0.177765
1.000000 0.393311 0.177765
1.000000 0.393402 0.177765
1.000000 0.393646 0.177765
1.000000 0.393951 0.177765
1.000000 0.394440 0.177765
1.000000 0.394989 0.177704
1.000000 0.395630 0.177582
1.000000 0.396393 0.177429
1.000000 0.397400 0.177307
1.000000 0.398529 0.177155
1.000000 0.399780 0.176910
1.000000 0.401093 0.176636
1.000000 0.402496 0.176392
1.000000 0.404114 0.176147
1.000000 0.405884 0.175903
1.000000 0.407776 0.175629
1.000000 0.409790 0.175385
1.000000 0.411896 0.175049
1.000000 0.414032 0.174652
1.000000 0.416382 0.174286
1.000000 0.418793 0.173889
1.000000 0.421509 0.173401
1.000000 0.424286 0.172913
1.000000 0.427094 0.172424
1.000000 0.429901 0.171906
1.000000 0.433044 0.171387
1.000000 0.436218 0.170868
1.000000 0.439514 0.170227
1.000000 0.442841 0.169617
1.000000 0.446259 0.168976
1.000000 0.449738 0.168335
1.000000 0.410309 0.185547
1.000000 0.410339 0.185547
1.000000 0.410461 0.185547
1.000000 0.410706 0.185547
1.000000 0.411011 0.185516
1.000000 0.411499 0.185455
1.000000 0.412048 0.185425
1.000000 0.412659 0.185303
1.000000 0.413361 0.185181
1.000000 0.414307 0.185059
1.000000 0.415375 0.184906
1.000000 0.416565 0.184723
1.000000 0.417847 0.184479
1.000000 0.419189 0.184204
1.000000 0.420685 0.183960
1.000000 0.422394 0.183716
1.000000 0.424164 0.183472
1.000000 0.426086 0.183228
1.000000 0.428101 0.182892
1.000000 0.430206 0.182526
1.000000 0.432434 0.182220
1.000000 0.434814 0.181854
1.000000 0.437286 0.181396
1.000000 0.440063 0.180878
1.000000 0.442719 0.180481
1.000000 0.445526 0.179962
1.000000 0.448425 0.179474
1.000000 0.451569 0.178955
1.000000 0.454651 0.178436
1.000000 0.457916 0.177795
1.000000 0.461212 0.177185
1.000000 0.464630 0.176544
1.000000 0.427460 0.193359
1.000000 0.427460 0.193359
1.000000 0.427490 0.193359
1.000000 0.427734 0.193359
1.000000 0.428040 0.193359
1.000000 0.428528 0.193207
1.000000 0.429077 0.193115
1.000000 0.429688 0.192993
1.000000 0.430389 0.192871
1.000000 0.431274 0.192749
1.000000 0.432281 0.192627
1.000000 0.433411 0.192474
1.000000 0.434601 0.192291
1.000000 0.435883 0.192047
1.000000 0.437347 0.191772
1.000000 0.438965 0.191528
1.000000 0.440704 0.191284
1.000000 0.442413 0.191040
1.000000 0.444366 0.190704
1.000000 0.446381 0.190338
1.000000 0.448578 0.190033
1.000000 0.450867 0.189789
1.000000 0.453308 0.189331
1.000000 0.455841 0.188843
1.000000 0.458496 0.188416
1.000000 0.461151 0.188049
1.000000 0.464020 0.187531
1.000000 0.466949 0.187042
1.000000 0.470001 0.186523
1.000000 0.473053 0.186005
1.000000 0.476349 0.185364
1.000000 0.479645 0.184753
1.000000 0.444611 0.201080
1.000000 0.444611 0.201080
1.000000 0.444641 0.201080
1.000000 0.444885 0.201080
1.000000 0.445160 0.201080
1.000000 0.445557 0.200928
1.000000 0.446106 0.200836
1.000000 0.446716 0.200775
1.000000 0.447388 0.200653
1.000000 0.448212 0.200531
1.000000 0.449127 0.200409
1.000000 0.450195 0.200287
1.000000 0.451385 0.200104
1.000000 0.452667 0.199860
1.000000 0.453979 0.199615
1.000000 0.455536 0.199341
1.000000 0.457214 0.199097
1.000000 0.458954 0.198853
1.000000 0.460785 0.198608
1.000000 0.462769 0.198242
1.000000 0.464783 0.197876
1.000000 0.467010 0.197601
1.000000 0.469269 0.197266
1.000000 0.471771 0.196777
1.000000 0.474274 0.196350
1.000000 0.476929 0.195984
1.000000 0.479584 0.195618
1.000000 0.482483 0.195099
1.000000 0.485382 0.194611
1.000000 0.488403 0.194092
1.000000 0.491486 0.193481
1.000000 0.494751 0.192841
1.000000 0.461761 0.208771
1.000000 0.461761 0.208771
1.000000 0.461792 0.208771
1.000000 0.462036 0.208771
1.000000 0.462311 0.208771
1.000000 0.462677 0.208618
1.000000 0.463135 0.208527
1.000000 0.463776 0.208527
1.000000 0.464417 0.208496
1.000000 0.465179 0.208344
1.000000 0.466034 0.208221
1.000000 0.467041 0.208099
1.000000 0.468170 0.207916
1.000000 0.469421 0.207672
1.000000 0.470734 0.207428
1.000000 0.472137 0.207184
1.000000 0.473724 0.206909
1.000000 0.475464 0.206665
