img/a2b.CUBE
#Created by: Adobe Photoshop Export Color Lookup Plugin
TITLE "a2b.psd"
#LUT size
LUT_3D_SIZE 5
#data domain
#LUT data points
DOMAIN_MIN 0.000000 0.000000 0.000000
DOMAIN_MAX 0.903226 0.903226 0.903226
0.000000 0.000000 0.000000
0.178741 0.086304 0.000000
0.411163 0.122467 0.000000
0.634460 0.156769 0.000000
0.847137 0.207947 0.000000
0.335938 0.127563 0.052979
0.386597 0.135529 0.051605
0.527527 0.158386 0.046539
0.704407 0.193878 0.033020
0.897308 0.236877 0.006622
0.687805 0.239655 0.108490
0.710724 0.244080 0.107758
0.785004 0.258606 0.105438
0.904541 0.282135 0.101196
1.000000 0.312592 0.094360
0.991852 0.359070 0.162354
0.993530 0.361725 0.161957
1.000000 0.371124 0.160492
1.000000 0.387238 0.157806
1.000000 0.409546 0.153839
1.000000 0.478821 0.216583
1.000000 0.480804 0.216217
1.000000 0.487518 0.215240
1.000000 0.499481 0.213379
1.000000 0.516541 0.210632
0.000000 0.132355 0.224213
0.000000 0.156952 0.223328
0.244659 0.226501 0.220062
0.493866 0.284821 0.216003
0.727692 0.334717 0.211395
0.159698 0.211212 0.226959
0.226074 0.226074 0.226074
0.385834 0.264465 0.223572
0.579224 0.308411 0.220245
0.787537 0.351746 0.216095
0.579865 0.324066 0.240051
0.604156 0.329468 0.239563
0.682648 0.346405 0.238098
0.808380 0.372650 0.235596
0.960510 0.404297 0.232269
0.952911 0.428619 0.264679
0.967010 0.431610 0.264282
0.993164 0.441528 0.263336
1.000000 0.458466 0.261505
1.000000 0.481384 0.258759
1.000000 0.535126 0.298004
1.000000 0.537140 0.297760
1.000000 0.544037 0.296967
1.000000 0.556335 0.295410
1.000000 0.573608 0.293213
0.000000 0.213928 0.449921
0.000000 0.236938 0.449280
0.000000 0.308838 0.447083
0.130615 0.384583 0.443817
0.493561 0.453491 0.440094
0.000000 0.288879 0.450287
0.000000 0.305908 0.449768
0.000000 0.353973 0.447845
0.302704 0.412964 0.445038
0.564758 0.472656 0.441559
0.319458 0.422363 0.453674
0.352844 0.429535 0.453430
0.452179 0.452179 0.452179
0.596954 0.487061 0.450012
0.769043 0.528534 0.447296
0.765869 0.539825 0.463409
0.781555 0.543549 0.463074
0.835144 0.556274 0.462128
0.925354 0.577393 0.460602
0.995819 0.605469 0.458435
1.000000 0.648193 0.479370
1.000000 0.650452 0.479126
1.000000 0.658630 0.478424
1.000000 0.672821 0.477173
1.000000 0.692566 0.475403
0.000000 0.303833 0.674133
0.000000 0.324219 0.673737
0.000000 0.385986 0.672058
0.000000 0.462738 0.669586
0.000000 0.539856 0.666412
0.000000 0.367737 0.674164
0.000000 0.383331 0.673737
0.000000 0.429993 0.672272
0.000000 0.493225 0.669983
0.096344 0.561310 0.667114
0.000000 0.501526 0.675354
0.000000 0.509369 0.675110
0.000000 0.535034 0.674042
0.107544 0.575500 0.672150
0.473907 0.624420 0.669739
0.478394 0.632538 0.679657
0.499542 0.637024 0.679535
0.568298 0.652069 0.678650
0.677277 0.677277 0.677277
0.817017 0.710876 0.675262
0.944366 0.752808 0.688202
0.950958 0.755676 0.687988
0.972870 0.765228 0.687317
1.000000 0.782227 0.686188
1.000000 0.805573 0.684662
0.000000 0.399994 0.890228
0.000000 0.417877 0.898926
0.000000 0.468719 0.897766
0.000000 0.539520 0.895660
0.000000 0.617279 0.893005
0.000000 0.453094 0.899323
0.000000 0.466278 0.898926
0.000000 0.508270 0.897827
0.000000 0.569397 0.895905
0.000000 0.639618 0.893402
0.000000 0.577087 0.899628
0.000000 0.585114 0.899475
0.000000 0.611328 0.898499
0.000000 0.653687 0.896851
0.000000 0.706573 0.894775
0.000000 0.713501 0.901886
0.000000 0.718262 0.901672
0.000000 0.734772 0.900848
0.123199 0.762543 0.899628
0.446594 0.799866 0.897766
0.638214 0.843842 0.906647
0.653259 0.846985 0.906494
0.704041 0.857819 0.905853
0.789398 0.876862 0.904877
0.903351 0.903351 0.903351
